icons/op-unlocked-24.svg

<svg width="24" height="24" viewBox="0 0 24 24" fill="none" xmlns="http://www.w3.org/2000/svg">
<path d="M15.5 4C13.0312 4 11 6.15768 11 8.78008V10.4398H4V20H15V10.4398H13V8.78008C13 7.3195 14.125 6.12448 15.5 6.12448C16.875 6.12448 18 7.3195 18 8.78008V10.4398H20V8.78008C20 6.15768 17.9688 4 15.5 4ZM10.2812 17.8755H8.59375L9.03125 15.3527C8.78125 15.2199 8.59375 14.9212 8.59375 14.5892C8.59375 14.0913 8.96875 13.6929 9.4375 13.6929C9.90625 13.6929 10.2812 14.0913 10.2812 14.5892C10.2812 14.9212 10.0938 15.2199 9.84375 15.3527L10.2812 17.8755Z" fill="black"/>
</svg>

<svg xmlns="http://www.w3.org/2000/svg" width="24" height="24" viewBox="0 0 24 24"><path d="M15.5 4C13.031 4 11 6.158 11 8.78v1.66H4V20h11v-9.56h-2V8.78c0-1.461 1.125-2.656 2.5-2.656S18 7.319 18 8.78v1.66h2V8.78C20 6.158 17.969 4 15.5 4Zm-5.219 13.875H8.594l.437-2.522a.876.876 0 0 1-.437-.764c0-.498.375-.896.844-.896.468 0 .843.398.843.896a.876.876 0 0 1-.437.764l.437 2.522Z"/></svg>
